X:2060
T:The Lisheen Slide
M: 12/8
L: 1/8
K: Gmaj
|: ~B3 BAB G2B A2G | ~B3 BAG A2B cBA |
|~B3 BAB GBA GBd | gfe dBG A2B cBA :|
|: ~g3 ~d3 ede def | gfg aga bab afd |
|~g3 ~d3 ede def | gfg aga bgf g3 :|
